X:2068
T:Frailach
O:england
M:4/4
L:1/8
Q:180
S:Lunasa
R:freilach
N:
D:
K:Am
^D2|"Am"EAcA Acec|"Dm"d2dc dec2|"C"cege cege|"G7"d2dc "C"dec2|
|"E7"cddc cBB_B|"Am"A4 Adc2|"E7"cddc cBB_B|"Am"A6:|
|:e2 |"Am"a6 gf|e6 e2|aeae a2{ba}gf|e6 e2|
|a6 g2|b6 a2|aeae "Dm"a2{ba}gf|"Am"e4 e2|
|"C"cdef efef|efef "Dm"e2d2|"Dm"dAAd dAAd|dAAd "C"d2{ed}c2|
|"E7"cddc cBB_B|"Am"A4 Adc2|"E7"cddc cBB_B|1 "Am"A2A2 c2:|2 "Am"A2z2 a2|
||


